app/client/src/assets/icons/blueprintjs/16px/code-block.svg

<svg xmlns="http://www.w3.org/2000/svg" xml:space="preserve" viewBox="0 0 16 16"><path fill-rule="evenodd" d="M15 3h-2V2c0-.55-.45-1-1-1h-2c-.55 0-1 .45-1 1v1H7V2c0-.55-.45-1-1-1H4c-.55 0-1 .45-1 1v1H1c-.55 0-1 .45-1 1v10c0 .55.45 1 1 1h14c.55 0 1-.45 1-1V4c0-.55-.45-1-1-1zm-8.29 8.29a1.003 1.003 0 0 1-1.42 1.42l-3-3C2.11 9.53 2 9.28 2 9s.11-.53.29-.71l3-3a1.003 1.003 0 0 1 1.42 1.42L4.41 9l2.3 2.29zm7-1.58-3 3a1.003 1.003 0 0 1-1.42-1.42L11.59 9l-2.3-2.29a1.003 1.003 0 0 1 1.42-1.42l3 3c.18.18.29.43.29.71s-.11.53-.29.71z" clip-rule="evenodd"/></svg>

<?xml version="1.0" encoding="utf-8"?>
<!-- Generator: Adobe Illustrator 18.1.0, SVG Export Plug-In . SVG Version: 6.00 Build 0)  -->
<svg version="1.1" id="Rounded_Rectangle_3_1_" xmlns="http://www.w3.org/2000/svg" xmlns:xlink="http://www.w3.org/1999/xlink"
	 x="0px" y="0px" viewBox="0 0 16 16" enable-background="new 0 0 16 16" xml:space="preserve">
<g id="Rounded_Rectangle_3">
	<g>
		<path fill-rule="evenodd" clip-rule="evenodd" d="M15,3h-2V2c0-0.55-0.45-1-1-1h-2C9.45,1,9,1.45,9,2v1H7V2c0-0.55-0.45-1-1-1H4
			C3.45,1,3,1.45,3,2v1H1C0.45,3,0,3.45,0,4v10c0,0.55,0.45,1,1,1h14c0.55,0,1-0.45,1-1V4C16,3.45,15.55,3,15,3z M6.71,11.29
			C6.89,11.47,7,11.72,7,12c0,0.55-0.45,1-1,1c-0.28,0-0.53-0.11-0.71-0.29l-3-3C2.11,9.53,2,9.28,2,9s0.11-0.53,0.29-0.71l3-3
			C5.47,5.11,5.72,5,6,5c0.55,0,1,0.45,1,1c0,0.28-0.11,0.53-0.29,0.71L4.41,9L6.71,11.29z M13.71,9.71l-3,3
			C10.53,12.89,10.28,13,10,13c-0.55,0-1-0.45-1-1c0-0.28,0.11-0.53,0.29-0.71L11.59,9L9.29,6.71C9.11,6.53,9,6.28,9,6
			c0-0.55,0.45-1,1-1c0.28,0,0.53,0.11,0.71,0.29l3,3C13.89,8.47,14,8.72,14,9S13.89,9.53,13.71,9.71z"/>
	</g>
</g>
</svg>
